X:1
T:STILLE NACHT - SILENT NIGHT
T:STILLE NACHT - SILENT NIGHT
T:Franz Xaver Grüber (1818)
T:Joseph Mohr (1816)
T:Edited on MuseScore by F. Vidotto (Dec. 2016)
T:Edited on MuseScore by F. Vidotto (Dec. 2016)
C:Franz Xaver Grüber (1818)
Z:Joseph Mohr (1816)
Z:Edited on MuseScore by F. Vidotto (Dec. 2016)
%%score [ 1 2 3 4 ]
L:1/8
Q:1/8=90
M:6/8
K:C
V:1 treble nm="Soprano" snm="S."
V:2 treble nm="Contralto" snm="C."
V:3 treble-8 nm="Tenore" snm="T."
V:4 bass nm="Basso" snm="B."
V:1
 G>AG E3 | G>AG E3 | d2 d B3 | c2 c G3 | A2 A c>BA | G>AG E3 | A2 A c>BA | G>AG E3 | d2 d f>dB | %9
w: Stil- * le Nacht!|Hei- li- ge Nacht!|Al- les schläft|ein- sam wacht.|Nur das trau- te, hoc|hei- li- ge Paar.|Hol- der Kna- be im|lock- ig- ten Haar,|Schlafe in himm- lis- cher|
w: Si- * lent night!|Ho- * ly night!|All is calm|All is brigth.|Round yon vir- * gin|Mo- ther and child.|Hol- ly in- fant so|ten- der and mild.|Sleep in hea- ven- ly|
 c3 !fermata!e3 | c>GE G>FD | C6 |] %12
w: Ruh! _|Schalfe * in himm- lis- cher|Ruh!|
w: pea- ce!|Sle- ep in hea- ven- ly|peace!|
V:2
 E>FE C3 | E>FE C3 | DGA G3 | E2 F GFE | F2 F A>GF | E>FE C3 | F2 F A>GF | E>FE C3 | B,DG A>AG/F/ | %9
w: Stil- * le Nacht!|Hei- li- ge Nacht!|Al- * les schläft|ein- sam wacht. * *|Nur das trau- te, hoc|hei- li- ge Paar.|Hol- der Kna- be im|lock- ig- ten Haar,|Schlafe * in himm- lis- cher _|
w: Si- * lent night!|Ho- * ly night!|All * is calm|All is bright. * *|Round yon vir- ti- gin|Mo- ther and child.|Hol- ly in- fant so|ten- der and mild.|Sle- ep in hea- ven- ly _|
 E2 G !fermata!^F3 | E2 C B,>B,B, | G,6 |] %12
w: Ruh! _ _|Schalfe in himm- lis- cher|Ruh!|
w: pea- ce _|Sleep in hea- ven- ly|peace!|
V:3
 c2 c G3 | c>cc G3 | B2 c d3 | c2 d edc | c2 c A>Bc | c>cc G3 | c2 c f>fc | c>cc G3 | G2 B d>fd | %9
w: Stil- le Nacht!|Hei- li- ge Nacht!|Al- les schläft|ein- sam wacht. * *|Nur das trau- te, hoc|hei- li- ge Paar.|Hol- der Kna- be im|lock- ig- ten Haar,|Schlafe in himm- lis- cher|
w: Si- lent night!|Ho- * ly night!|All is calm|All is bright. * *|Round yon vir- ti- gin|Mo- ther and child.|Hol- ly in- fant so|ten- der and mild.|Sleep in hea- ven- ly|
 c3 !fermata!A3 | c2 c G>GF | E6 |] %12
w: Ruh! _|Schalfe in himm- lis- cher|Ruh!|
w: pea- ce!|Sleep in hea- ven- ly|peace!|
V:4
 C,2 C, C,3 | C,>C,C, C,3 | G,,2 G, G,3 | C,2 C, C,3 | F,2 F, F,>F,F, | C,>C,C, C,3 | %6
w: Stil- le Nacht!|Hei- li- ge Nacht!|Al- les schläft|ein- sam wacht.|Nur das trau- te, hoc|hei- li- ge Paar.|
w: Si- lent night!|Ho- * ly night!|All is calm|All is bright.|Round yon vir- ti- gin|Mo- ther and child.|
 F,2 F, F,>F,F, | C,>C,C, C,3 | G,,2 G, D,>G,G, | A,3 !fermata!D,3 | G,2 G, G,,>G,,G,, | C,6 |] %12
w: Hol- der Kna- be im|lock- ig- ten Haar,|Schlafe in himm- lis- cher|Ruh! _|Schalfe in himm- lis- cher|Ruh!|
w: Hol- ly in- fant so|ten- der and mild.|Sleep in hea- ven- ly|pea- ce!|Sleep in hea- ven- ly|peace!|

